app/assets/images/payment_icons/klarna-slice-it.svg

<svg xmlns="http://www.w3.org/2000/svg" role="img" width="38" height="24" viewBox="0 0 38 24" aria-labelledby="pi-klarna-slice-it" fill="none"><title id="pi-klarna-slice-it">Klarna Slice It</title><rect width="38" height="24" fill="#FFA8CD"/><path d="M30.6209 14.7548C29.9579 14.7548 29.4411 14.2011 29.4411 13.5287C29.4411 12.8563 29.9579 12.3026 30.6209 12.3026C31.2839 12.3026 31.8007 12.8563 31.8007 13.5287C31.8007 14.2011 31.2839 14.7548 30.6209 14.7548ZM30.2894 16.0501C30.8549 16.0501 31.5764 15.8326 31.9762 14.9822L32.0152 15.002C31.8397 15.4667 31.8397 15.7436 31.8397 15.8128V15.9216H33.2632V11.1358H31.8397V11.2446C31.8397 11.3138 31.8397 11.5906 32.0152 12.0554L31.9762 12.0752C31.5764 11.2248 30.8549 11.0073 30.2894 11.0073C28.9341 11.0073 27.9786 12.0949 27.9786 13.5287C27.9786 14.9624 28.9341 16.0501 30.2894 16.0501ZM25.502 11.0073C24.8585 11.0073 24.3515 11.2347 23.942 12.0752L23.903 12.0554C24.0785 11.5906 24.0785 11.3138 24.0785 11.2446V11.1358H22.6549V15.9216H24.1175V13.4001C24.1175 12.7377 24.4977 12.3224 25.112 12.3224C25.7263 12.3224 26.0285 12.6783 26.0285 13.3903V15.9216H27.4911V12.8761C27.4911 11.7884 26.6525 11.0073 25.502 11.0073ZM20.5391 12.0752L20.5001 12.0554C20.6756 11.5906 20.6756 11.3138 20.6756 11.2446V11.1358H19.2521V15.9216H20.7146L20.7244 13.6177C20.7244 12.9453 21.0754 12.5399 21.6507 12.5399C21.8067 12.5399 21.9334 12.5597 22.0797 12.5992V11.1358C21.4362 10.9974 20.8609 11.2446 20.5391 12.0752ZM15.8882 14.7548C15.2252 14.7548 14.7085 14.2011 14.7085 13.5287C14.7085 12.8563 15.2252 12.3026 15.8882 12.3026C16.5513 12.3026 17.068 12.8563 17.068 13.5287C17.068 14.2011 16.5513 14.7548 15.8882 14.7548ZM15.5567 16.0501C16.1222 16.0501 16.8438 15.8326 17.2435 14.9822L17.2825 15.002C17.107 15.4667 17.107 15.7436 17.107 15.8128V15.9216H18.5306V11.1358H17.107V11.2446C17.107 11.3138 17.107 11.5906 17.2825 12.0554L17.2435 12.0752C16.8438 11.2248 16.1222 11.0073 15.5567 11.0073C14.2014 11.0073 13.2459 12.0949 13.2459 13.5287C13.2459 14.9624 14.2014 16.0501 15.5567 16.0501ZM11.2081 15.9216H12.6707V9H11.2081V15.9216ZM10.1356 9H8.64379C8.64379 10.236 7.89302 11.3434 6.75223 12.1345L6.30372 12.4509V9H4.75343V15.9216H6.30372V12.4905L8.86804 15.9216H10.7596L8.29278 12.6388C9.41406 11.8181 10.1453 10.5425 10.1356 9Z" fill="#0B051D"/></svg>

<svg xmlns="http://www.w3.org/2000/svg" role="img" width="38" height="24" viewBox="0 0 38 24" aria-labelledby="pi-klarna-slice-it" fill="none"><title id="pi-klarna-slice-it">Klarna Slice It</title><path fill="#FFA8CD" d="M0 0h38v24H0z"/><path d="M30.62 14.755c-.662 0-1.179-.554-1.179-1.226 0-.673.517-1.226 1.18-1.226.663 0 1.18.553 1.18 1.226 0 .672-.517 1.226-1.18 1.226zm-.33 1.295c.565 0 1.286-.217 1.686-1.068l.04.02c-.176.465-.176.742-.176.81v.11h1.423v-4.786H31.84v.109c0 .069 0 .346.175.81l-.039.02c-.4-.85-1.121-1.068-1.687-1.068-1.355 0-2.31 1.088-2.31 2.522 0 1.433.955 2.521 2.31 2.521zm-4.788-5.043c-.643 0-1.15.228-1.56 1.068l-.039-.02c.175-.464.175-.741.175-.81v-.11h-1.423v4.787h1.462V13.4c0-.662.38-1.078.995-1.078.614 0 .917.356.917 1.068v2.532h1.462v-3.046c0-1.088-.838-1.869-1.989-1.869zm-4.963 1.068l-.039-.02c.176-.464.176-.741.176-.81v-.11h-1.424v4.787h1.463l.01-2.304c0-.673.35-1.078.926-1.078.156 0 .282.02.429.06v-1.464c-.644-.139-1.22.109-1.54.94zm-4.65 2.68c-.664 0-1.18-.554-1.18-1.226 0-.673.516-1.226 1.18-1.226.662 0 1.179.553 1.179 1.226 0 .672-.517 1.226-1.18 1.226zm-.332 1.295c.565 0 1.287-.217 1.687-1.068l.038.02c-.175.465-.175.742-.175.81v.11h1.424v-4.786h-1.424v.109c0 .069 0 .346.175.81l-.038.02c-.4-.85-1.122-1.068-1.687-1.068-1.356 0-2.311 1.088-2.311 2.522 0 1.433.955 2.521 2.31 2.521zm-4.349-.128h1.463V9h-1.463v6.922zM10.136 9H8.644c0 1.236-.751 2.343-1.892 3.134l-.448.317V9h-1.55v6.922h1.55V12.49l2.564 3.43h1.892L8.293 12.64c1.121-.82 1.852-2.096 1.843-3.639z" fill="#0B051D"/></svg>
